src/icons/youtube.svg

<svg height="32" viewBox="0 0 32 32" width="32" xmlns="http://www.w3.org/2000/svg"><path d="m24 16.604c0 1.295-.16 2.59-.16 2.59s-.156 1.102-.636 1.588c-.608.637-1.29.64-1.603.677-2.239.162-5.601.167-5.601.167s-4.16-.038-5.44-.16c-.356-.067-1.156-.047-1.764-.684-.48-.486-.636-1.588-.636-1.588s-.16-1.295-.16-2.59v-1.214c0-1.295.16-2.589.16-2.589s.156-1.103.636-1.589c.608-.637 1.29-.64 1.603-.677 2.239-.162 5.598-.162 5.598-.162h.006s3.359 0 5.598.162c.313.037.995.04 1.603.677.48.486.636 1.589.636 1.589s.16 1.294.16 2.589zm-8-16.604c-8.837 0-16 7.163-16 16 0 8.836 7.163 16 16 16s16-7.164 16-16c0-8.837-7.163-16-16-16zm-1.6518 18.075 4.323-2.24-4.324-2.256z" fill="#9b9b9b" fill-rule="evenodd" opacity=".513644"/></svg>

<?xml version="1.0" encoding="UTF-8"?>
<svg width="32px" height="32px" viewBox="0 0 32 32" version="1.1" xmlns="http://www.w3.org/2000/svg" xmlns:xlink="http://www.w3.org/1999/xlink">
    <!-- Generator: Sketch 46.2 (44496) - http://www.bohemiancoding.com/sketch -->
    <title>icon_youtube</title>
    <desc>Created with Sketch.</desc>
    <defs></defs>
    <g id="Page-1" stroke="none" stroke-width="1" fill="none" fill-rule="evenodd" opacity="0.513643569">
        <g id="MH-Home-2" transform="translate(-1199.000000, -3352.000000)" fill="#9B9B9B">
            <g id="Footer" transform="translate(0.000000, 3328.000000)">
                <g id="Group-2" transform="translate(1010.000000, 24.000000)">
                    <g id="icon_youtube" transform="translate(189.000000, 0.000000)">
                        <path d="M24,16.604 C24,17.899 23.84,19.194 23.84,19.194 C23.84,19.194 23.684,20.296 23.204,20.782 C22.596,21.419 21.914,21.422 21.601,21.459 C19.362,21.621 16,21.626 16,21.626 C16,21.626 11.84,21.588 10.56,21.466 C10.204,21.399 9.404,21.419 8.796,20.782 C8.316,20.296 8.16,19.194 8.16,19.194 C8.16,19.194 8,17.899 8,16.604 L8,15.39 C8,14.095 8.16,12.801 8.16,12.801 C8.16,12.801 8.316,11.698 8.796,11.212 C9.404,10.575 10.086,10.572 10.399,10.535 C12.638,10.373 15.997,10.373 15.997,10.373 L16.003,10.373 C16.003,10.373 19.362,10.373 21.601,10.535 C21.914,10.572 22.596,10.575 23.204,11.212 C23.684,11.698 23.84,12.801 23.84,12.801 C23.84,12.801 24,14.095 24,15.39 L24,16.604 Z M16,0 C7.163,0 0,7.163 0,16 C0,24.836 7.163,32 16,32 C24.837,32 32,24.836 32,16 C32,7.163 24.837,0 16,0 L16,0 Z M14.3482,18.075 L18.6712,15.835 L14.3472,13.579 L14.3482,18.075 Z" id="Fill-207"></path>
                    </g>
                </g>
            </g>
        </g>
    </g>
</svg>
